!!!ONB: MCCC : IJH0444_04 : Extracted Monophonic Melody
!!!COM: Haydn, Joseph
!!!OPR: String Quartet in E-flat major
!!!OMV: 4
!!!SCT: Hob.III:27 ; Op.17 No.3
!!!ODT: 1771///
**kern
*thru
*k[b-e-a-]
*E-:
*clefG
*M4/4
8b-
=1
8ee-
8b-
8.b-
32a
32b-
8cc
8cc
8b-
8b-
=2
8f
8f
8g
8g
4a-
8r
8b-
=3
8ee-
8b-
8.b-
32a
32b-
8cc
8cc
8b-
8b-
=4
8a-
8a-
8f
8f
4e-
8r
16b-
16g
=5
16e-
16g
16e-
16g
16f
16a-
16d
16f
16e-
16g
16B-
16e-
8G
16b-
16g
=6
16e-
16g
16e-
16g
16f
16a-
16d
16f
8e-
8a-
8g
8cc
=7
8b-
8aa-
8gg
8ccc
8bb-
8eee-
8ddd
8ccc
=8
4bb-
8aa-
8gg
8ff
16ddd
16bb-
16eee-
16bb-
16gg
16ee-
=9
8bb-
16ddd
16bb-
16eee-
16bb-
16gg
16ee-
4bb-
8r
8ff
=10
8ddd
8bb-
8.bb-
32aa
32bb-
8aa
8aa
8ee-
8ee-
=11
8dd
8b-
8b-
16a
16b-
8a
8a
8ee-
8ee-
=12
8ddd
8bb-
8.bb-
32aa
32bb-
8aa
8aa
8eee-
8eee-
=13
8ddd
8bb-
8.bb-
32aa
32bb-
8aa
8aa
8eee-
8eee-
=14
8ddd
8bb-
16ddd
16bb-
16ddd
16bb-
8eee-
8ccc
16eee-
16ccc
16eee-
16ccc
=15
8fff
8ddd
16fff
16ddd
16fff
16ddd
8ggg
8eee-
8aaa
8fff
=16
8.bbb-
16fff
16bbb-
16fff
16bbb-
16fff
4bbb-
8e
8e
=17
8f
8f
8g
8g
8e-
16d
16e-
8f
8f
=18
16bb-
16b-
16a
16b-
16cc
16b-
16dd
16b-
16ee-
16b-
16ff
16b-
16gg
16b-
16aa
16b-
=19
16bb-
16b-
16a
16b-
16cc
16b-
16dd
16b-
16ee-
16b-
16ff
16b-
16gg
16b-
16aa
16b-
=20
16bb-
16b-
16ff
16b-
16gg-
16b-
16ff
16b-
16gg-
16b-
16gg
16b-
16aa-
16b-
16aa
16b-
=21
16bb-
16b-
16ff
16b-
16gg-
16b-
16ff
16b-
16gg-
16b-
16gg
16b-
16aa-
16b-
16aa
16b-
=22
8bb-
24ff
24gg
24ff
8bb-
8g
8bb-
8f
8bb-
8e
=23
2f
2cc
=24
8b-
8d
8d
8e-
8f
4.r
=25
8r
8d
8d
8e-
8f
4.r
=26
8r
8dd
8dd
8cc
8b-
4.r
=27
2..r
8g
=28
8cc
8f
8f
16e
16f
8b-
8e-
8r
8e-
=29
8a-
8d
8d
16c
16d
8g
8c
8r
8c
=30
8f
8B-
8B-
16A
16B-
8e-
8A
8r
8A
=31
8d
8f
8f
16e-
16f
8g
8g
8a
8a
=32
8b-
8f
8f
16e-
16f
8g
8g
8a
8a
=33
1b-[
=34
8b-]
8gg
8gg
16ff
16ee-
8ff
16ccc
16bb-
16aa-
16gg
16ff
16ee-
=35
8dd
8B-
8ff
16ee-
16dd
8ee-
16bb-
16aa-
16gg
16ff
16ee-
16dd
=36
8cc
8A-
8ee-
16dd
16cc
8dd
16aa-
16gg
16ff
16ee-
16dd
16cc
=37
8b-
8G
8dd
16cc
16b-
8cc
16gg
16ff
16ee-
16dd
16cc
16b-
=38
8a-
8A-
8cc
16b-
16a-
8b-
16ff
16ee-
16dd
16cc
16b-
16a-
=39
8g-
4b-
4ee-
4gg-
8bb-[
=40
8bb-]
4eee-
4ggg-
8a
8a
8a
=41
8b-
8b-
8e-
8e-
4d
8r
8b-
=42
8ee-
8b-
8.b-
32a
32b-
8cc
8cc
8b-
8b-
=43
8f
8f
8g
8g
4a-
4r
=44
8g
8g
8a-
8a-
4b-
4r
=45
2r
8bb-
8bb-
8aa-
8aa-
=46
8aa-
8aa-
8gg
8gg
16ff
16gg
16aa-
16gg
8ff
8ee-
=47
16dd
16b-
16a
16b-
16cc
16b-
16dd
16b-
16ee-
16b-
16ff
16b-
16gg
16b-
16aa
16b-
=48
16bb-
16b-
16a
16b-
16a-
16b-
16g
16b-
16f
16b-
16g
16b-
16a-
16b-
16f
16b-
=49
16g
16e-
16d
16e-
16f
16e-
16g
16e-
16a-
16e-
16b-
16e-
16cc
16e-
16dd
16e-
=50
16ee-
16e-
16d
16e-
16d-
16e-
16c
16e-
16G
16e-
16c
16e-
16d-
16e-
16B-
16e-
=51
8c
4cc
4a-
4f
8e-
=52
8d
8B-
8B-
8B-
4B-
8r
8b-
=53
8gg
8ee-
8.ee-
32dd
32ee-
8dd
8dd
8a-
8a-
=54
8g
8e-
8.e-
32d
32e-
8d
8d
8a-
8a-
=55
8gg
8ee-
8.ee-
32dd
32ee-
8dd
8dd
8aa-
8aa-
=56
8gg
8ee-
8.ee-
32dd
32ee-
8dd
8dd
8aa-
8aa-
=57
8gg
8ee-
16gg
16ee-
16gg
16ee-
8aa-
8ff
16aa-
16ff
16aa-
16ff
=58
8bb-
8gg
16bb-
16gg
16bb-
16gg
8ccc
8aa-
8ddd
8bb-
=59
8.eee-
16bb-
16eee-
16bb-
16eee-
16bb-
4eee-
8A
8A
=60
8B-
8B-
8c
8c
8A-
16G
16A-
8B-
8B-
=61
16ee-
16e-
16d
16e-
16f
16e-
16g
16e-
16a-
16e-
16b-
16e-
16cc
16e-
16dd
16e-
=62
16ee-
16e-
16d
16e-
16f
16e-
16g
16e-
16a-
16e-
16b-
16e-
16cc
16e-
16dd
16e-
=63
16ee-
16e-
16b-
16e-
16cc-
16e-
16b-
16e-
16cc-
16e-
16cc
16e-
16dd-
16e-
16dd
16e-
=64
16ee-
16e-
16b-
16e-
16cc-
16e-
16b-
16e-
16cc-
16e-
16cc
16e-
16dd-
16e-
16dd
16e-
=65
8ee-
24b-
24cc
24b-
8ee-
8c
8ee-
8B-
8ee-
8A
=66
2B-
2f
=67
8e-
8g
8g
8f
4e-
4r
=68
8r
8g
8g
8f
4e-
4r
=69
8r
8g
8g
8f
4e-
4r
==
*-
